FINK
CUT[NICHTS BESSRES GIBT ES WEIT UND BREIT]
REG[Europa, Mitteleuropa, Deutschland]
KEY[F0205  16  G 2/4]
MEL[12  3_3_3_3_  542_1_
    -71  2_2_3_5_  2__0_
    12  3_3_3_3_  542_1_
    -71  2_2_3_5_  2__0_
    5_  4_4_3_3_  21231_
    5_  4_4_3_3_  21231_
    1_  6__.6_  6__.54  3_2_1_
    12  3__2023  4__30
    34  5_5_4_3_  21232_
    11  3__2023  4__30
    34  5_3_4_2_  1__0_ //] >>
FCT[Geselligkeits - Lied]
